assets/img/base/logo-white.svg

<svg width="260" height="37" viewBox="0 0 260 37" fill="none" xmlns="http://www.w3.org/2000/svg">
<g clip-path="url(#clip0_907_8659)">
<path d="M31.4626 25.8519C28.7043 25.8406 26.3153 24.2457 25.1115 21.9123C25.0995 21.8898 25.0834 21.8689 25.0714 21.8462H25.0644L13.0826 0.422325L-0.00012207 0.372448L18.6073 33.6381C21.1046 38.1012 27.3875 38.1256 29.9166 33.6811L34.8598 24.9951C33.8462 25.545 32.69 25.8562 31.4626 25.8519Z" fill="white"/>
<path d="M37.4461 0.506051L26.1511 0.472087L31.5909 10.2041L31.5947 10.1972C32.6668 12.368 34.8578 13.8629 37.3976 13.873C41.0048 13.886 43.9395 10.9053 43.9532 7.21445C43.9669 3.52314 41.0533 0.520075 37.4461 0.506051Z" fill="white"/>
<path d="M89.9938 14.9315H101.286V10.4521H89.9938V5.04804H102.779V0.42667H84.4008V25.3125H103.231V20.6911H89.9938V14.9315Z" fill="white"/>
<path d="M182.952 5.11931H190.734V25.3125H196.363V5.11931H204.144V0.42667H182.952V5.11931Z" fill="white"/>
<path d="M68.1778 18.2026L60.7776 0.426647H54.6971L65.1893 25.3135H70.7487L81.2764 0.426647H75.6819L68.1778 18.2026Z" fill="white"/>
<path d="M115.378 5.90188C116.581 5.23891 117.961 4.90676 119.513 4.90676C121.967 4.90676 124.064 5.84305 125.8 7.71503L129.415 4.30163C128.233 2.90358 126.774 1.83765 125.037 1.10198C123.3 0.368193 121.364 0.000671387 119.234 0.000671387C116.686 0.000671387 114.393 0.55131 112.356 1.6538C110.317 2.75544 108.725 4.28457 107.578 6.23936C106.431 8.19458 105.858 10.4047 105.858 12.8702C105.858 15.3354 106.431 17.545 107.578 19.5008C108.725 21.456 110.305 22.9847 112.321 24.0865C114.336 25.1888 116.605 25.7395 119.13 25.7395C120.89 25.7395 122.639 25.4668 124.376 24.9219C126.114 24.3766 127.642 23.5946 128.963 22.575V12.4792H123.82V19.7667C122.523 20.4783 121.064 20.8338 119.443 20.8338C117.914 20.8338 116.553 20.4963 115.361 19.8202C114.167 19.1445 113.235 18.2029 112.564 16.9944C111.891 15.7857 111.556 14.4108 111.556 12.8702C111.556 11.3052 111.891 9.91912 112.564 8.71055C113.235 7.50183 114.174 6.56525 115.378 5.90188Z" fill="white"/>
<path d="M176.7 11.9457C175.519 11.4959 174.001 11.0453 172.148 10.5944C170.365 10.1918 169.039 9.78284 168.17 9.36803C167.303 8.95437 166.868 8.31989 166.868 7.46641C166.868 6.61327 167.244 5.92599 167.997 5.40466C168.749 4.88322 169.913 4.62234 171.489 4.62234C173.734 4.62234 175.982 5.27417 178.229 6.57756L179.966 2.20505C178.854 1.49365 177.556 0.948347 176.075 0.568949C174.593 0.19029 173.075 0.000370026 171.523 0.000370026C169.3 0.000370026 167.418 0.344656 165.878 1.03219C164.338 1.71869 163.185 2.64876 162.421 3.8228C161.656 4.99567 161.275 6.30584 161.275 7.75113C161.275 9.41065 161.697 10.7372 162.543 11.7326C163.387 12.7288 164.401 13.451 165.582 13.9017C166.763 14.3514 168.28 14.8024 170.133 15.2523C171.337 15.5363 172.293 15.7975 173 16.0342C173.707 16.2716 174.286 16.5859 174.737 16.9762C175.188 17.3678 175.414 17.8597 175.414 18.4518C175.414 19.2576 175.033 19.904 174.268 20.3897C173.503 20.876 172.323 21.1181 170.724 21.1181C169.288 21.1181 167.852 20.8814 166.416 20.4073C164.98 19.9337 163.741 19.305 162.699 18.5231L160.787 22.8605C161.877 23.7139 163.318 24.4065 165.113 24.9406C166.907 25.4736 168.767 25.7402 170.689 25.7402C172.913 25.7402 174.8 25.3958 176.352 24.7086C177.904 24.0218 179.068 23.0917 179.844 21.9181C180.621 20.7448 181.009 19.4469 181.009 18.0259C181.009 16.3662 180.586 15.0514 179.74 14.0795C178.894 13.1075 177.882 12.3967 176.7 11.9457Z" fill="white"/>
<path d="M224.751 16.9947C224.09 18.2032 223.18 19.1448 222.023 19.8209C220.864 20.4966 219.568 20.8341 218.132 20.8341C216.696 20.8341 215.399 20.4966 214.24 19.8209C213.081 19.1448 212.173 18.2032 211.514 16.9947C210.853 15.7852 210.523 14.4111 210.523 12.8705C210.523 11.3297 210.853 9.95526 211.514 8.74654C212.173 7.53798 213.081 6.59518 214.24 5.91952C215.399 5.24453 216.696 4.90705 218.132 4.90705C219.568 4.90705 220.864 5.24453 222.023 5.91952C223.18 6.59518 224.09 7.53798 224.751 8.74654C225.41 9.95526 225.741 11.3297 225.741 12.8705C225.741 14.4111 225.41 15.7852 224.751 16.9947ZM224.942 1.67144C222.926 0.557816 220.656 0.000965118 218.132 0.000965118C215.606 0.000965118 213.332 0.557816 211.305 1.67144C209.277 2.78607 207.692 4.31953 206.545 6.2755C205.398 8.23054 204.825 10.43 204.825 12.8705C204.825 15.3112 205.398 17.5099 206.545 19.4654C207.692 21.4205 209.277 22.9551 211.305 24.069C213.332 25.1831 215.606 25.7402 218.132 25.7402C220.656 25.7402 222.926 25.1831 224.942 24.069C226.956 22.9551 228.543 21.4205 229.701 19.4654C230.859 17.5099 231.438 15.3112 231.438 12.8705C231.438 10.43 230.859 8.23054 229.701 6.2755C228.543 4.31953 226.956 2.78607 224.942 1.67144Z" fill="white"/>
<path d="M260 25.313L250.805 11.9627L259.493 0.372408H253.515L240.771 17.3736V12.0523V0.427353H235.177V25.3127H240.754L240.782 25.3347L247.473 16.4074L253.607 25.313H260Z" fill="white"/>
<path d="M141.554 14.9814L145.157 6.0804L147.905 12.8705L148.709 14.8282C146.444 15.8883 143.847 15.9541 141.554 14.9814ZM142.412 0.427055L131.572 25.3135H137.339L139.493 19.9807H139.535L139.718 19.5329C141.397 20.2657 143.191 20.6419 144.989 20.6419C146.901 20.6419 148.807 20.2115 150.577 19.3823L153.011 25.3135H158.845L147.97 0.427055H142.412Z" fill="white"/>
</g>
<defs>
<clipPath id="clip0_907_8659">
<rect width="260" height="37" fill="white"/>
</clipPath>
</defs>
</svg>

<svg width="260" height="37" fill="none" xmlns="http://www.w3.org/2000/svg"><g clip-path="url(#clip0_907_8659)" fill="#fff"><path d="M31.463 25.852c-2.759-.011-5.148-1.606-6.352-3.94-.012-.022-.028-.043-.04-.066h-.007L13.083.422 0 .372l18.607 33.266c2.498 4.463 8.78 4.488 11.31.043l4.943-8.686a7.048 7.048 0 01-3.397.857zM37.446.506L26.151.472l5.44 9.732.004-.007c1.072 2.171 3.263 3.666 5.803 3.676 3.607.013 6.541-2.968 6.555-6.659.014-3.69-2.9-6.694-6.507-6.708zM89.994 14.931h11.292v-4.479H89.994V5.048h12.785V.427H84.401v24.885h18.83v-4.62H89.994v-5.76zM182.952 5.12h7.782v20.193h5.629V5.119h7.781V.427h-21.192v4.692zM68.178 18.203L60.778.427h-6.08l10.491 24.887h5.56L81.276.427h-5.594l-7.504 17.776zM115.378 5.902c1.203-.663 2.583-.995 4.135-.995 2.454 0 4.551.936 6.287 2.808l3.615-3.413c-1.182-1.398-2.641-2.464-4.378-3.2C123.3.368 121.364.001 119.234.001c-2.548 0-4.841.55-6.878 1.653-2.039 1.101-3.631 2.63-4.778 4.585-1.147 1.956-1.72 4.166-1.72 6.631s.573 4.675 1.72 6.63c1.147 1.956 2.727 3.485 4.743 4.587 2.015 1.102 4.284 1.652 6.809 1.652 1.76 0 3.509-.272 5.246-.817 1.738-.545 3.266-1.327 4.587-2.347V12.479h-5.143v7.288c-1.297.711-2.756 1.067-4.377 1.067-1.529 0-2.89-.338-4.082-1.014a7.199 7.199 0 01-2.797-2.826c-.673-1.208-1.008-2.583-1.008-4.124 0-1.565.335-2.95 1.008-4.16a7.053 7.053 0 012.814-2.808zM176.7 11.946c-1.181-.45-2.699-.9-4.552-1.352-1.783-.402-3.109-.811-3.978-1.226-.867-.414-1.302-1.048-1.302-1.902 0-.853.376-1.54 1.129-2.061.752-.522 1.916-.783 3.492-.783 2.245 0 4.493.652 6.74 1.956l1.737-4.373c-1.112-.711-2.41-1.257-3.891-1.636A18.32 18.32 0 00171.523 0c-2.223 0-4.105.345-5.645 1.032-1.54.687-2.693 1.617-3.457 2.79-.765 1.174-1.146 2.484-1.146 3.93 0 1.659.422 2.985 1.268 3.98a7.383 7.383 0 003.039 2.17c1.181.45 2.698.9 4.551 1.35 1.204.284 2.16.545 2.867.782.707.238 1.286.552 1.737.942.451.392.677.884.677 1.476 0 .806-.381 1.452-1.146 1.938-.765.486-1.945.728-3.544.728a13.67 13.67 0 01-4.308-.71c-1.436-.474-2.675-1.103-3.717-1.885l-1.912 4.337c1.09.854 2.531 1.547 4.326 2.08 1.794.534 3.654.8 5.576.8 2.224 0 4.111-.344 5.663-1.031 1.552-.687 2.716-1.617 3.492-2.79a6.9 6.9 0 001.165-3.893c0-1.66-.423-2.975-1.269-3.947a7.539 7.539 0 00-3.04-2.133zM224.751 16.995a7.214 7.214 0 01-2.728 2.826c-1.159.676-2.455 1.013-3.891 1.013s-2.733-.337-3.892-1.013a7.182 7.182 0 01-2.726-2.826c-.661-1.21-.991-2.584-.991-4.125 0-1.54.33-2.915.991-4.123a7.18 7.18 0 012.726-2.827c1.159-.675 2.456-1.013 3.892-1.013s2.732.338 3.891 1.013a7.213 7.213 0 012.728 2.827c.659 1.208.99 2.583.99 4.123 0 1.541-.331 2.915-.99 4.125zm.191-15.324c-2.016-1.113-4.286-1.67-6.81-1.67-2.526 0-4.8.557-6.827 1.67-2.028 1.115-3.613 2.649-4.76 4.605-1.147 1.955-1.72 4.154-1.72 6.595 0 2.44.573 4.639 1.72 6.594 1.147 1.956 2.732 3.49 4.76 4.604 2.027 1.114 4.301 1.671 6.827 1.671 2.524 0 4.794-.557 6.81-1.671 2.014-1.114 3.601-2.648 4.759-4.604 1.158-1.955 1.737-4.154 1.737-6.595 0-2.44-.579-4.64-1.737-6.594-1.158-1.956-2.745-3.49-4.759-4.605zM260 25.313l-9.195-13.35 8.688-11.59h-5.978l-12.744 17V.428h-5.594v24.886h5.577l.028.022 6.691-8.928 6.134 8.906H260zM141.554 14.981l3.603-8.9 2.748 6.79.804 1.957a8.78 8.78 0 01-7.155.153zm.858-14.554l-10.84 24.887h5.767l2.154-5.333h.042l.183-.448a13.18 13.18 0 005.271 1.109c1.912 0 3.818-.43 5.588-1.26l2.434 5.931h5.834L147.97.428h-5.558z"/></g><defs><clipPath id="clip0_907_8659"><path fill="#fff" d="M0 0h260v37H0z"/></clipPath></defs></svg>
